X:1
T:O Dolcissima Morte
T:O Dolcissima Morte Adone, Venere & un Pastore (soprano, tenore, basso; continuo) Allessandro Grandi
T:(C) Wim Looyestijn - 2017. May be freely copied for non-commercial use.
T:(C) Wim Looyestijn - 2017. May be freely copied for non-commercial use.
T:(C) Wim Looyestijn - 2017. May be freely copied for non-commercial use.
T:(C) Wim Looyestijn - 2017. May be freely copied for non-commercial use.
T:(C) Wim Looyestijn - 2017. May be freely copied for non-commercial use.
T:(C) Wim Looyestijn - 2017. May be freely copied for non-commercial use.
T:(C) Wim Looyestijn - 2017. May be freely copied for non-commercial use.
T:(C) Wim Looyestijn - 2017. May be freely copied for non-commercial use.
T:(C) Wim Looyestijn - 2017. May be freely copied for non-commercial use.
T:(C) Wim Looyestijn - 2017. May be freely copied for non-commercial use.
T:(C) Wim Looyestijn - 2017. May be freely copied for non-commercial use.
T:(C) Wim Looyestijn - 2017. May be freely copied for non-commercial use.
T:(C) Wim Looyestijn - 2017. May be freely copied for non-commercial use.
T:(C) Wim Looyestijn - 2017. May be freely copied for non-commercial use.
T:(C) Wim Looyestijn - 2017. May be freely copied for non-commercial use.
T:(C) Wim Looyestijn - 2017. May be freely copied for non-commercial use.
T:(C) Wim Looyestijn - 2017. May be freely copied for non-commercial use.
T:(C) Wim Looyestijn - 2017. May be freely copied for non-commercial use.
T:(C) Wim Looyestijn - 2017. May be freely copied for non-commercial use.
T:(C) Wim Looyestijn - 2017. May be freely copied for non-commercial use.
T:(C) Wim Looyestijn - 2017. May be freely copied for non-commercial use.
T:(C) Wim Looyestijn - 2017. May be freely copied for non-commercial use.
T:(C) Wim Looyestijn - 2017. May be freely copied for non-commercial use.
T:(C) Wim Looyestijn - 2017. May be freely copied for non-commercial use.
T:(C) Wim Looyestijn - 2017. May be freely copied for non-commercial use.
C:Alessandro Grandi
C:(1586-1630)
Z:http://www.bibliotecamusica.it/cmbm/viewschedatwbca.asp?path=/cmbm/images/ripro/gaspari/AA/AA036/
Z:(C) Wim Looyestijn - 2017. May be freely copied for non-commercial use.
%%score [ 1 2 3 ] 4
L:1/8
Q:1/4=120
M:4/4
K:C
V:1 alto1 nm="Adone" snm="Ad."
V:2 tenor nm="Venere" snm="Ve."
V:3 bass nm="Pastore" snm="Pa."
V:4 bass nm="B.C."
V:1
 x8 | x8 | x8 | G8- | ^G2 G2 G2 GG | A4 A4- | A4 F3 E | E8 | D8 | z2 A^F A4- | A2 _B2 GABc | %11
w: |||O|* dol- cis- si- ma|mor- te|* del mio|co-|re.|Mo- ro, mo-|* * ro be- a- ta|
 A4 AA/A/ AA/G/ | B>G G>F A4 | A4 z2 FG | AA/A/ AA AB cc/c/ | c>G G>F G4 | G2 G/A/_B/B/ B/B/B d2 | %17
w: men- te. Bel- la Ve- ne- re|mia qual' hor- ti mi-|re. Che d'un|guar- do ves- ti- ta sen- tio l'a- ni- ma|mia da ques- ti lu-|mi ve- lo- cis- si- ma men- te, ahi-|
 ^F>G G4 F2 | G4 z2 DD | GG/G/ _BB/B/ =B/B/d d>G | AAAB c2 cc | c3 G G3 F | F4 F4 | z FAB ccc_B | %24
w: mè, par- ti- *|re, ma in un|pun- to sot- ten- tra per ques- ti lu- mi a|far- mi. Vi- vo in- sie- me e|bea- to il tuo bel|vol- to.|Co- si men vi- vo sciol- to|
 _B/B/B B/B/B/A/ z G G>F | G3/2G>GG/ _B2 AG | A4 z/ A/_B/A/ B/A/B/c/ | d4 z/ d/_e/d/ c/B/A/G/ | %28
w: da la vi- ta de Vul- go e mi fa|vi- vo non più l'a- ni- ma|mia ma * * * * * *||
 ^F>D E/F/G/A/ _B2 z B | AB cB A4 | G8 || z8 | z8 | z8 | z8 | z8 | z8 | z8 | z8 | z8 | z8 | z8 | %42
w: * * * * * * * il|tuo * bel * vol-|to.||||||||||||
 z8 | z8 | z8 | z8 | z8 | z8 | z8 | z8 | z8 | z8 | z8 | z8 | z8 | z8 | z8 | z8 | z8 | z8 | z8 | %61
w: |||||||||||||||||||
 z8 | z8 | z8 | z8 | z8 | z8 | z8 | z8 | z8 | z8 | z8 | z8 | z8 | z8 | z8 | z8 | z8 | z8 | z8 | %80
w: |||||||||||||||||||
 z8 | z8 | z16 ||[M:4/4] z8 | z8 | z8 | z8 | z8 | z8 | z8 | z8 | z8 | z8 | z8 | z8 | z8 | z8 | z8 | %98
w: ||||||||||||||||||
 z8 | z8 | z8 | z8 | z8 | z8 | z8 | z8 | z8 | z8 | z8 | z8 || z2 GG B<B BA | B2 B2 z4 | %112
w: ||||||||||||Se pur hor te- co mo-|ri- a|
 z2 Bc d2 c2 | B3 A A2 A2 | z8 | z2 c4 dc | B4 B4 |[M:3/2] e4 d4 c4 | d4 d4 z4 | d4 c4 B4 | %120
w: co- me vi- vo,|co- me can- to,||I- do- la|mi- o.|Ma se vi-|via- mo,|me se vi-|
 c4 c4 z4 | z12 |[M:4/4] z2 c2 c4 | c4 c3 d | d4 c4 | z8 | z8 | z2 D2 GFFE | E4 D2 FG | %129
w: via- mo||u- niam|le dol- ci|boc- che.|||Si che l'un l'al- tro|be- va i dol-|
 A2 AA A2 A2 | A3 ^G A2 A2 | z2 AB c2 cc | c2 c2 c3 B | c2 c2 z2 c2 | eddc d2 dd | dfed c2 cd | %136
w: cis- si- mi ac- cen- ti al|suo di- let- to,|i dol- cis- si- mi ac-|cen- ti al suo di-|let- to, e|ser- va- no di cop- pe a|l'a- mo- ro- sa se- te i|
 ef/e/ de/d/ c>e d>c | B4 z c !plus!B>A | ^G4 z e !plus!d>c | B>c !plus!B>A ^G>e !plus!d>c | %140
w: dol- * * * * * * * * *||||
 B3 B B4 | A8 || z8 | z8 | z8 | z8 | z8 | z8 | z8 | z8 | z8 | z8 | z8 | z8 | z8 | z8 | z8 | z8 | %158
w: * ci ba-|ci.|||||||||||||||||
 z8 | z8 | z8 | z8 | z8 | z8 | z8 | z8 | z8 | z8 | z8 | z8 | z8 | z8 | z8 | z8 | z8 | z8 | z8 | %177
w: |||||||||||||||||||
 z8 || z2 G2 B4 | z BBA BA Bc | d2 de d2 c2 | dccB c2 c2 | z2 cd ed c>B | BA Bc d2 e2 | %184
w: |Co- si,|co- si can- tan- * * *|* do su lá- ni-|ma al * * mio be- ne|fio- ri- rà * so- vra|lei * * * * lo|
 e3 d d2 d2 | z2 d2 dfed | c2 cB c2 d/B/c/d/ | eAdc B3 A | A2 A2 z4 || z8 | z8 | z8 | z8 | z8 | %194
w: spir- to mi- o,|e in ci- ma a le mie|no- te ver- rà'l mio * * *|co- re a sa- lu- tar- le il|la- bro.||||||
 z8 | z8 | z8 | z8 | z8 | z2 dB d4- || d2 cB B4 | B2 z B eddc | cdcB B4 | A8 | z d_BA B3 A | %205
w: |||||Ta- ci boc-|* ca pie- to-|sa. Fio- ri- ta de le|por- po- re d'a- mo-|re.|Non puoi mo- rir ben|
 A4 A4 | z2 BB B2 BB | B4 B4 | z2 cc c2 G>F | A4 A4 | z2 d3 A A2 | z d c>B B4 | G4 G4- | G2 A2 A4 | %214
w: mi- o,|che su'l lan- gui- do|tron- co,|del tuo cor mo- ri-|bon- do|su- bi- to|in- nes- te- ro|io spir-|* to mi-|
 G8 || d2 cB A3 G | G2 G2 z2 e2- | e2 dc B3 A | A2 A2 A<G A<B | c8 | G3 A B4 | BBBB B4 | B4 B3 A | %223
w: o.|O che so- a- ve in-|nes- to, d'a-|* ni- me in- na- mo-|ra- te, o, * * *||o, * *|che con- fu- si- on|di spir- ti A-|
 A2 A2 z4 | z8 | z8 | z8 | z8 | z8 | z8 | z A AA d3 A | BB dd d2 cB | c2 cG A>B c>d | %233
w: man- ti.||||||||||
 e>E F>G A3 B | B8 | AEEE A3 E | ^FFAA A2 GF | G2 G2 z2 dd | d2 cB c2 cc | d2 c2 B>B c>d | %240
w: ||* ed hau- rà fi- ne in|tan- to, in si- len- tio a- mo-|ro- so in si-|len- tio a- mo- ro- so il|no- stro can- * * *|
 e4 z e/d/ cd/c/ | Bc/B/ AB/A/ ^Ge/d/ cd/c/ | B4 B4 | A8 || z8 | z8 | z8 | z8 | z8 | z8 | z8 | z8 | %252
w: |||to.|||||||||
 z8 || z2 A2 A2 Bc | d2 c2 B3 A | AB cd e4- | e2 d2 d3 d | d4 c4 | z8 | z8 | z ABc dAdc | %261
w: |Can- tiam, * *|* dun- que can-|tiam * * * *|* lo Dio d'a-|mo- re.|||E vi- van sem- pre l'a- mo-|
 B3 A A2 A2 | z8 | z4 z DEF | GDGF E3 D | D2 D2 z4 | z8 | z4 z2 D2 | EG^FA G2 G2 | z4 z GAB | %270
w: ro- se mor- ti.||E vi- van|sem- pre l'a- mo- ro- se|mor- ti.||E|vi- va- no gli scher- zi.|E vi- van|
 cGc_B A3 G | G2 G2 z4 | z8 | z ABc dAdc | B3 A A2 A2 | z8 | z4 z2 G2 | AcBd c2 cE | ^FA^GB A2 A2 | %279
w: sem- pre l'a- mo- ro- se|mor- ti.||E vi- van sem- pre l'a- mo-|ro- se mor- ti.||E|vi- va- no gli scher- zi. E|vi- va- no i di- let- ti,|
 c2 c2 c2 BA | d4 z2 _B2- | B2 AA A4 | G8 | z8 | z8 | A2 A2 A2 G^F | B4 z2 c2- | c2 BB B4 | %288
w: in cui mor- te vi-|tal sen-|* to- no i pet-|ti,|||in cui mor- te vi-|tal sen-|* to- no i pet-|
 A4 c2 c2 | c2 BA d4 | z2 B4 AA | A8 | G16 |] %293
w: ti, in cui|mor- te vi- tal|sen- to- no i|pet-|ti.|
V:2
 x8 | x8 | x8 | z8 | z8 | z8 | z8 | z8 | z8 | z8 | z8 | z8 | z8 | z8 | z8 | z8 | z8 | z8 | z8 | %19
w: |||||||||||||||||||
 z8 | z8 | z8 | z8 | z8 | z8 | z8 | z8 | z8 | z8 | z8 | z8 || z2 B,B, D2 DG, | A,2 A,2 D2 CB, | %33
w: ||||||||||||O fan- ciul- lo vez-|zo- lo pe- la de|
 B,3 A, A,2 A,2 | z A, B,/G,/A,/B,/ C4- | C2 G,G, G,3 F, | F,2 F,2 A,4- | A,2 F,E, E,3 D, | %38
w: miei di- let- ti,|fior * * * * *|* de le mie de-|li- tie, cor|* de gl'af- fet- ti|
 D,2 D,2 A,2 B,C | DCDC B,3 A, | A,2 A,2 z2 G,A, | _B,2 B,B, B,/A,/B,/C/ D2- | D2 A,2 A,3 G, | %43
w: mie- i, spi- ri- to e|cen- tro de le mie dol-|cez- ze, pa- ra-|di- so gen- til * * * *|* de miei pen-|
 G,2 G,2 z4 | z2 z G, G,G,G,F, | A,A, z A, A,A,A,G, | B,2 B,2 z2 B,2- | B,2 B,B, B,4- | %48
w: sie- ri.|Se tu can- tan- do|mi- ri, se tu mi- ran- do|mo- ri, io|* qui lan- quis-|
 B,2 B,2 B,4 | A,A,A,E, ^F,2 F,2 | z DDA, _B,3 A, | _B,2 z D- D/C/=B,/A,/ C/B,/A,/G,/ | %52
w: co in tan-|to al tuo mi- ra- re,|al tuo mo- ri- *|re, al * * * * * * * *|
 ^F,_B,/A,/ C/B,/-B, A,4 | G,8 | z2 D,2 G,2 z G, | G,G,_B,B, D4- | D2 CB, B,2 B,E | %57
w: * * * * * * can-|to.|Poi- che io|spir- to mi- o, ahi-|* mè, mi la- cia e|
 CC A,A,/A,/ C4 | z G,G,G, G,3 F, | A,2 A,2 z2 C2 | A,4 z C F,>E, | G,2 G,2 z2 G,2 | %62
w: co- re ad in- con- trar|quel a- ni- ma- to|squar- do po-|scia ca- der si|la- scia in|
 G,2 A,/F,/ G,/A,/ _B,A, A,/B,/C/B,/ | A,4 G,4 | z2 G,2 _B,A,A,G, | A,A, z A, CB,B,A, | %66
w: grem- bo a i- * dol- ci ac- * * *|cen- ti,|e ba- cia i tuoi sos-|pi- ri, e ba- cia i tuoi sos-|
 B,2 B,2 z B,CD | ECDE F/E/D/C/ D/C/B,/A,/ | FE DC DCCB, | B,4 A,4 | %70
w: pi- ri, e le tue|fugh'e i tuoi pas- sag- * * * * * * *|* * * * * * * gi a-|do- ra.|
 z A,/A,/ B,/C/C/C/ _B,/A,/A,/A,/ A,>G, | G,4 G,2 z G, | G,A,_B,C A,A,A,A, | D2 CB, B,4 | %74
w: E tras- for- mar- si vo- le ne le tue ca- re|no- te, ne|l'a- ria che res- pi- ri. Pie- na|d'a- ni- me a- man-|
 A,4 z A,A,A, | C4 z G,G,A, | _B,A, C/=B,A,/ A,4 | G,4 z D,D,D, | F,4 z F,E,F, | %79
w: ti, per- che tal'|hor la bel- la|boc- * ca il * * can-|ti, per- che tal'|hor la bel- la|
 G,F,F,E, E,3 F,/G,/ | A,/F,/G,/A,/ D,/E,/F,/G,/ A,/B,/4C/4D/D,/ E,/F,/G,/F,/ | F,4 E,4 | D,16 || %83
w: boc- * * ca il can- * *|||ti.|
[M:4/4] z8 | z8 | z8 | z8 | z8 | z8 | z8 | z8 | z8 | z8 | z8 | z8 | z8 | z8 | z8 | z8 | z8 | z8 | %101
w: ||||||||||||||||||
 z8 | z8 | z8 | z8 | z8 | z8 | z8 | z8 | z8 || z8 | z2 B,B, D<D DC | D2 D2 z4 | z4 z2 B,C | %114
w: ||||||||||Se pur hor te- co mo-|ri- a|co- me|
 D2 C2 B,3 A, | A,A, A,4 ^F,F, | ^G,4 G,4 |[M:3/2] z12 | B,4 A,4 G,4 | A,4 A,4 z4 | A,4 G,4 ^F,4 | %121
w: can- to, co- me|vi- vo, I- do- lo|mi- o.||Ma se can-|tia- mo,|ma se can-|
 ^G,4 G,4 z4 |[M:4/4] z2 C2 C4 | C4 C3 C | C2 B,2 C4 | z2 G,2 CB,B,A, | A,4 G,2 B,C | D2 DD D2 D2 | %128
w: tia- mo|u- niam|le dol- ci|boc- * che.|Si che l'un l'al- tro|be- va i dol-|cis- si- mi ac- cen- ti al|
 D3 ^C D2 D2 | z2 A,2 DCCB, | B,4 A,2 CD | E2 EE E4- | E2 D2 D3 C | C2 C2 z2 E2 | %134
w: suo di- let- to,|si che l'un l'al- tro|be- va i dol-|cis- si- mi ac- cen-|* ti al suo di-|let- to, e|
 CB,B,A, B,2 B,B, | B,DCB, A,2 A,B, | CD/C/ B,C/B,/ A,4 | z E !plus!D>C B,4 | %138
w: ser- va- no di cop- pe a|l'a- mo- ro- sa se- te i|dol- * * * * * *||
 z C !plus!B,>A, ^G,4 | z E !plus!D>C B,>C !plus!B,>A, | ^G,A, A,4 !plus!G,2 | A,8 || %142
w: ||* ci ba- *|ci.|
 z A,CC C2 CA, | C_B,B,A, B,2 B,2 | z2 G,2 _B,B,B,A, | _B,2 B,B, D4- | DCCB, B,4 | %147
w: Co- si can- tan- do in|boc- ca al mio di- let- to,|ar- mo- ni- o- sa a-|man- te fa- to|* pie- to- sa- men-|
 B,2 z B, ^G,G,G,B, | E,2 A,3 G, F,/A,/4G,/4F,/G,/4F,/4 | E,/A,/B,/A,/ G,/F,/G,/F,/ E,4 | D,8 | %151
w: te, che gli ca- drà su'l|cor mu- si- ca * * * * *|* * * * * * * * piog-|gia.|
 z2 G,G, _B,2 A,G, | A,4 A,2 A,2 | _B,2 C/A,/=B,/C/ D4- | DCC_B, D4- | D2 _B,2 A,4 | %156
w: E quel co- re gen-|ti- le mo-|ven- d'al * * * l'or|* so- a- ve- men-|* te il poi-|
 A,4 z A, _B,C | D4 C4 | _B,3 A, A,G, A,=B, | C4 C2 D2 | _E4 E4 | z DDC D4- | D4 C2 C2 | _B,8 | %164
w: si. Fa- * *|rà men-|tre per- co * * *|* te mi-|su- ra|in- na- mo- ra-|* ta a|le|
 A,8 | A,8 | G,8 | z F, G,A, _B,A, B,C | D4 C4 | _B,3 A, A,G, A,B, | C4 C4 | C4 _B,4 | %172
w: mie|no-|te,|fa- * * rà * * *|* men-|tre per- co * * *|* te|mi- su-|
 _B,4 z A,A,G, | A,4 A,2 A,2 | G,8 | A,8 | A,8 | G,8 || z8 | z8 | z8 | z8 | z8 | z8 | z8 | z8 | %186
w: ra in- na- mo-|ra- ta a|le|mie|no-|te.|||||||||
 z8 | z8 | z8 || z C_B,A, B,4- | B,6 _B,2 | _B,4 A,4 | C3 C C4 | CB, A,B, G,2 G,2 | %194
w: |||Tra- sa- ni- mar|* mi|sen- to|mu- si- co|vez- * zo- * set- to|
 z ^F,G,A, B,A, B,C | D3 G, A,2 A,2 | z2 DD D2 CB, | CB,B,A, B,A, B,C | D2 A,2 A,4 | G,8 || z8 | %201
w: e que- sti ac- cen- * * *|* ti so- no|del mio fo- co vi-|ta * * lei fu- * * *|* mi es- tre-|mi.||
 z8 | z8 | z8 | z8 | z8 | z8 | z8 | z8 | z8 | z8 | z8 | z8 | z8 | z8 || B,2 A,G, G,3 ^F, | %216
w: ||||||||||||||O che so- a- ve in-|
 G,2 G,2 z2 C2- | C2 B,A, A,3 ^G, | A,2 A,2 z4 | C<B, C<D E4 | E,3 F, G,4- | G,4 ^G,G,G,G, | %222
w: nes- to, d'a-|* ni- me in- na- mo-|ra- te,|o, * * * *|o, * *|* che con- fu- si-|
 ^G,2 A,2 A,3 G, | A,2 A,2 z A,A,A, | C2 z C CCCF, | G,2 G,2 z2 G,G, | _B,2 A,G, A,2 A,2 | %227
w: on di spir- ti A-|man- ti. Tra- mon- te-|ra di ques- te lu- ci il|lu- me per mi-|ra- col d'a- mo- re|
 z2 _B,B, B,2 B,F, | G,G,/G,/ G,A, _B,4- | B,2 A,4 A,2 | A,8 | G,4 z4 | z8 | z8 | z B,B,B, E3 B, | %235
w: sul piu sit- to me-|rig- gi- o del le nos-|* tre dol-|cez-|ze.|||Ed hau- rà fi- ne in|
 ^CCEE E2 DC | D2 D2 z4 | z2 B,B, B,4- | B,2 A,G, A,2 A,A, | B,2 A,2 ^G,4 | z B, C>D E4 | %241
w: tan- to, in si- len- tio a- mo-|ro- so|in si- len-|* tio a- mo- ro- so il|no- stro can-||
 z E/D/ CD/C/ B,C/B,/ A,B,/A,/ | ^G,2 A,4 G,2 | A,8 || z8 | z8 | z8 | z8 | z8 | z8 | z8 | z8 | %252
w: ||to.|||||||||
 z8 || z2 ^F,2 F,2 G,A, | B,2 A,2 A,3 ^G, | A,G, A,B, C2 C2 | C6 C2 | C2 B,2 C4 | z8 | %259
w: |Can- tiam, * *|* dun- que can-|tiam * * * * lo|Dio d'a-|mo- * re.||
 B,2 B,D D3 ^C | D2 D2 z4 | z4 A,2 A,C | C3 B, C2 C2 | z8 | z8 | z A,B,C DA,DC | B,3 A, A,2 A,2 | %267
w: Vi- va lo Dio d'a-|mo- re.|Vi- va lo|Dio d'a- mo- re.|||E vi- van sem- pre l'a- mo-|ro- se mor- ti.|
 z8 | z4 z2 G,2 | A,CB,D C2 C2 | z8 | z4 B,2 B,D | D3 ^C DA,B,C | DA,DC B,C/B,/ A,2- | %274
w: |E|vi- va- no gli scher- zi.||Vi- va lo|Dio d'a- mo- re e vi- van|sem- pre l'a- mo- ro- * * *|
 A,2 ^G,2 A,2 A,2 | z4 z2 D,2 | E,G,^F,A, G,2 G,2 | z4 z2 E2 | DCB,B, ^C2 C2 | z4 A,2 A,2 | %280
w: * se mor- ti.|E|vi- va- no i di- let- ti,|E|vi- va- no i di- let- ti,|in cui|
 A,2 G,F, _B,2 G,2- | G,2 G,G, G,2 ^F,2 | G,4 G,2 G,2 | G,2 F,E, A,4 | z2 F,4 E,E, | E,4 D,2 DD | %286
w: mor- te vi- tal sen-|* to- no i pet- *|ti, in cui|mor- te vi- tal|sen- to- no i|pet- ti, in cui|
 D2 CB, E4 | A,2 A,A, A,2 ^G,2 | A,8 | A,2 A,2 A,2 G,^F, | B,4 z2 G,2- | G,2 G,G, G,2 ^F,2 | %292
w: mor- te vi- tal|sen- to- no i pet- *|ti,|in cui mor- te vi-|tal sen-|* to- no i pet- *|
 G,16 |] %293
w: ti.|
V:3
 x8 | x8 | x8 | z8 | z8 | z8 | z8 | z8 | z8 | z8 | z8 | z8 | z8 | z8 | z8 | z8 | z8 | z8 | z8 | %19
w: |||||||||||||||||||
 z8 | z8 | z8 | z8 | z8 | z8 | z8 | z8 | z8 | z8 | z8 | z8 || z8 | z8 | z8 | z8 | z8 | z8 | z8 | %38
w: |||||||||||||||||||
 z8 | z8 | z8 | z8 | z8 | z8 | z8 | z8 | z8 | z8 | z8 | z8 | z8 | z8 | z8 | z8 | z8 | z8 | z8 | %57
w: |||||||||||||||||||
 z8 | z8 | z8 | z8 | z8 | z8 | z8 | z8 | z8 | z8 | z8 | z8 | z8 | z8 | z8 | z8 | z8 | z8 | z8 | %76
w: |||||||||||||||||||
 z8 | z8 | z8 | z8 | z8 | z8 | z16 ||[M:4/4] z2 D,D, F,2 F,E, | G,2 G,2 z2 E,E, | %85
w: |||||||Can- di- det- ti miei|Cig- ni pal- li-|
 G,2 G,F, A,2 A,2 | z2 A,B, C2 CC | C3 G, G,3 F, | F,2 F,2 A,4- | A,2 E,2 E,2 E,D, | %90
w: det- te mei stel- le,|ch'an- nun- tia- te l'Au-|ro- ra a le mie|gio- ie, deh,|* can- tan- do spi-|
 ^F,F,F,F, F,2 F,E, | G,2 G,2 z2 G,2- | G,2 D,2 z D,D,C, | E,2 E,2 z2 z E, | C,D,E,E, G,4- | %95
w: ra- te. Ques- to spi- ri- to|mi- o. Ec-|* co che sos- pi-|ran- do su|l'a- li d'un sos- pir|
 G,2 D,2 D,3 C, | C,2 C,2 z2 G,2 | _B,B, B,4 A,G, | A,A, z A, F,F,F,E, | %99
w: * a voi l'in-|vi- o non|de- e boc- ca di-|vi- na già ma- neg- giar can-|
 F,D,/E,/ F,/G,/A,/B,/ A,2 A,2- | A,2 A,B, B,4 | A,4 z2 A,2 | E, z/ A,/ A,>E, ^F,2 G,2- | %103
w: tan * * * * * * * d'a-|* ria mor- ta-|le. Dun-|que pren- de- te in don l'a-|
 G,2 E,>D, D,4 | C,8 | z C,E,F, G,3 F, | A,A,F,F, F,2 E,>D, | E,2 E,C, E,D, E,F, | G,3 A, A,4 | %109
w: * ni- ma mi-|a.|Ch'io qui ri- man- go in|tan- to sen- za spi- ri- to|vi- vo al vo- * * * *|* stro can-|
 G,8 || z8 | z8 | z8 | z8 | z8 | z8 | z8 |[M:3/2] z12 | z12 | z12 | z12 | z12 |[M:4/4] z8 | z8 | %124
w: to.|||||||||||||||
 z8 | z8 | z8 | z8 | z8 | z8 | z8 | z8 | z8 | z8 | z8 | z8 | z8 | z8 | z8 | z8 | z8 | z8 || z8 | %143
w: |||||||||||||||||||
 z8 | z8 | z8 | z8 | z8 | z8 | z8 | z8 | z8 | z8 | z8 | z8 | z8 | z8 | z8 | z8 | z8 | z8 | z8 | %162
w: |||||||||||||||||||
 z8 | z8 | z8 | z8 | z8 | z8 | z8 | z8 | z8 | z8 | z8 | z8 | z8 | z8 | z8 | z8 || z8 | z8 | z8 | %181
w: |||||||||||||||||||
 z8 | z8 | z8 | z8 | z8 | z8 | z8 | z8 || z8 | z8 | z8 | z8 | z8 | z8 | z8 | z8 | z8 | z8 | z8 || %200
w: |||||||||||||||||||
 z8 | z8 | z8 | z8 | z8 | z8 | z8 | z8 | z8 | z8 | z8 | z8 | z8 | z8 | z8 || z8 | z8 | z8 | z8 | %219
w: |||||||||||||||||||
 z8 | z8 | z8 | z8 | z8 | z8 | z8 | z8 | z8 | z8 | z8 | z8 | z8 | z8 | z8 | z8 | z8 | z8 | z8 | %238
w: |||||||||||||||||||
 z8 | z8 | z8 | z8 | z8 | z8 || z2 A,2 E,4 | z G,G,^F, F,2 F,2 | z2 G,G, G,2 G,F, | A,4 A,4 | %248
w: ||||||Ahi- me,|ch'in as- col- tan- do|quei dol- cis- si- mi ac-|cen- ti|
 z2 _B,2 _B,,C,D,E, | F,2 F,F, A,CB,A, | G,4 z2 G,2- | G,2 F,E, E,4 | D,8 || z2 D,2 D,3 C, | %254
w: tor- na ve- lo- ce-|men- te ad al- ber- gar- mi in|sen l'a-|* ni- ma mi-|a.|Can- tiam, *|
 B,,2 C,2 D,2 E,2 | A,,4 A,,B,, C,D, | E,2 F,2 F,3 G, | G,4 C,4 | E,2 E,G, G,3 ^F, | G,2 G,2 z4 | %260
w: * * dun- que|can- tiam * * *|* lo Dio d'a-|mo- re.|Vi- va lo Dio d'a-|mo- re.|
 z8 | z8 | z4 E,2 E,G, | G,3 ^F, G,2 G,2 | z8 | z8 | z4 z2 A,,2 | B,,D,^C,E, D,2 D,2 | z8 | z8 | %270
w: ||Vi- va lo|Dio d'a- mo- re.|||E|vi- va- no gli scher- zi.|||
 E,2 E,G, G,3 F, | G,D,E,F, G,D,G,F, | E,3 D, D,2 D,2 | z8 | z4 z2 A,,2 | B,,D,^C,E, D,2 D,2 | z8 | %277
w: Vi- va lo Dio d'a-|mo- re e vi- van sem- pre l'a- mo-|ro- se mor- ti.||E|vi- va- no gli scher- zi.||
 z4 z2 C,2 | D,D,E,E, A,,2 A,,2 | z4 F,2 F,2 | F,2 E,D, G,4 | C,2 C,C, D,4 | G,,8 | %283
w: E|vi- va- no i di- let- ti,|in cui|mor- te vi- tal|sen- to- no i pet-|ti,|
 C,2 C,2 C,2 B,,A,, | D,4 D,2 D,D, | D,2 ^C,2 D,4 | z8 | z4 E,2 E,2 | E,2 D,C, F,4 | %289
w: in cui mor- te vi-|tal sen- to- no i|pet- * ti,||in cui|mor- te vi- tal|
 F,2 F,2 F,2 E,D, | G,4 E,2 B,,C, | D,8 | G,,16 |] %293
w: in cui mor- te vi-|tal sen- to- no i|pet-|ti.|
V:4
 x8 | x8 | x8 | G,6 F,2 | E,6 D,2 | ^C,8 | D,8 | A,,8 | D,8- | D,8 | G,,8 | D,8 | G,,2 C,2 F,,4- | %13
w: ||||x *||||||z|||
 F,,8 | F,,8- | F,,4 C,4- | C,4 G,,4 | D,8 | G,,8 | G,,8 | D,4 A,,4 | C,8 | F,,8- | F,,8- | F,,8 | %25
w: |||* z|||z|x *|||||
 C,4 G,,4 | D,8 | _B,,4- B,,2 C,2 | D,8- | D,8 | G,,8 || G,,8 | D,4 D,2 A,,2 | E,4 A,,4 | F,,8 | %35
w: * z|x||x|x|||x * *|* x||
 C,8 | F,,6 G,,2 | A,,8 | D,8 | D,4 E,4 | A,,4 G,,4- | G,,8 | D,8 | G,,8- | G,,8 | D,8 | G,,8 | %47
w: |||x||x z|||x|z|||
 E,8 | D,4 E,4 | A,,4 D,4- | D,4 G,,4- | G,,4 D,4- | D,8 | G,,8 | G,,8 | G,,8 | E,8 | A,,8 | C,8 | %59
w: x||* x|* z||x|x|z||x|||
 F,,8 | F,,8 | C,8 | C,2 B,,A,, G,,4 | D,4 G,,4 | G,,8 | D,4 A,,4 | E,6 D,2 | C,4 D,4- | %68
w: |||* * * z||z|x *|x *||
 D,2 E,2 F,2 D,2 | E,4 A,,4 | F,,8 | C,8 | G,,4 D,4 | D,2 A,,2 E,4 | A,,8- | A,,4 C,4 | G,,4 D,4 | %77
w: |* x|||z *||||z *|
 G,,8 | D,8 | G,,4 A,,4- | A,,8- | A,,8 | D,16 ||[M:4/4] D,8 | C,8 | C,4 F,,4 | F,,8 | C,8 | F,,8 | %89
w: |z|z *|x|||||||||
 A,,8 | D,8 | G,,8- | G,,8 | C,8- | C,8 | G,,8 | C,4 G,,4- | G,,8 | D,8 | D,8 | D,2 ^C,2 E,4 | %101
w: x|||||||* z|z||||
 A,,8- | A,,4 D,2 B,,2 | C,4 G,,4 | C,8- | C,8 | F,,8 | C,6 D,2 | E,2 C,2 D,4 | G,,8 || G,,8 | %111
w: x||||||||||
 G,,8 | G,,4 D,2 A,,2 | E,4 A,,4 | D,2 A,,2 E,4 | A,,4 D,4 | E,6 D,2 |[M:3/2] C,12 | G,,12 | D,12 | %120
w: ||||z x|x *||||
 A,,12 | E,8 D,4 |[M:4/4] C,4 C,4- | C,2 D,2 E,2 F,2 | G,4 C,4 | C,8 | D,4 G,,4 | G,,8 | A,,4 D,4 | %129
w: |x *||||||||
 D,8 | E,4 A,,4 | A,,8 | A,,2 F,,2 G,,4 | C,8 | C,4 G,,4- | G,,4 A,,4 | A,,2 B,,2 C,2 D,2 | E,8- | %138
w: |||||||||
 E,8- | E,8 | E,2 D,2 E,4 | A,,8 || A,,8- | A,,4 G,,4- | G,,8 | G,,8 | E,8 | E,8 | ^C,4 D,4 | %149
w: x||x * *|||* z||z||x||
 A,,8 | D,8 | G,,8 | D,4 D,2 D,2 | G,2 F,2 _B,,2 C,2 | D,2 E,2 ^F,4 | G,2 G,,2 D,4 | D,6 C,2 | %157
w: ||z||z * * *||z z *|x *|
 _B,,6 C,2 | D,2 E,2 F,4 | F,2 F,,2 A,,2 _B,,2 | C,2 D,2 _E,2 F,2 | G,2 A,2 _B,2 _B,,2 | %162
w: |||z * * *|z * * *|
 D,2 E,2 F,2 F,,2 | G,,2 A,,2 _B,,2 B,,2 | C,2 D,2 _E,2 C,2 | D,8 | G,,4 G,,2 A,,2 | _B,,8 | %168
w: |z * * *|||* z *||
 _B,,2 A,,2 B,,2 C,2 | D,2 E,2 F,2 F,,2 | A,,2 _B,,2 C,2 D,2 | _E,2 F,2 G,2 G,,2 | %172
w: |||* * z *|
 _B,,2 C,2 D,2 E,2 | F,2 G,2 A,2 A,,2 | _B,,2 C,2 D,2 B,,2 | C,2 D,2 _E,2 C,2 | D,8 | G,,8 || %178
w: ||||||
 G,,8- | G,,8 | G,2 E,2 F,2 E,2 | F,2 G,2 C,4- | C,8 | G,,8 | A,,4 D,4 | D,8 | A,,4 A,,2 B,,2 | %187
w: |||||||||
 C,2 D,2 E,4 | A,,4 z4 || A,,4 G,,2 F,,2 | E,,4 D,,4 | E,,4 A,,4- | A,,8 | C,2 D,2 G,,4 | G,,8 | %195
w: ||* z *|x *|||||
 G,,4 D,4- | D,8 | A,,4 G,,4 | D,8 | G,,8 || A,,4 E,4- | E,8 | F,2 D,2 E,4 | A,,8 | G,,8 | D,8 | %206
w: * x|z||||* x|x|||z|x|
 B,,8- | B,,4 E,2 D,2 | C,8 | F,,8 | ^F,,8- | F,,4 G,,4 | G,2 F,2 E,2 D,2 | C,2 B,,2 D,4 | G,,8 || %215
w: x|* x *|||6|||* 6 *||
 B,,2 C,2 D,4 | G,,4 C,4 | D,4 E,4 | A,,4- A,,4 | A,,2 B,,2 C,4- | C,4 G,,4- | G,,4 E,4- | %222
w: ||||||* x|
 E,2 D,2 E,4 | A,,4 A,,4 | A,,4 F,,4 | C,8 | G,,4 D,4 | _B,,8 | _E,8 | D,4 C,4 | D,8 | G,,4 G,4 | %232
w: x * *|x *|||z x|||x *|||
 E,4 F,4 | C,4 F,2 D,2 | E,8 | A,,8 | D,8 | G,,8 | G,4 F,4 | D,4 E,4- | E,8- | E,8- | E,8 | A,,8 || %244
w: 6 *|||||||* x|x||x||
 A,,8- | A,,4 D,4 | G,,8 | D,8 | _B,,8 | F,,8 | G,,8 | A,,8 | z8 || z2 D,2 D,3 C, | %254
w: |x x|z|x||||||x x *|
 B,,2 C,2 D,2 E,2 | A,,8 | E,2 F,2 F,4 | G,4 C,4 | C,4 D,4 | G,,4 A,,4 | D,4- D,4 | E,4 A,,4 | %262
w: ||6 * *||||||
 G,,4 C,4 | D,4 G,,4 | G,,4 A,,4 | D,8 | E,4 A,,4 | B,,2 ^C,2 D,4 | C,2 D,2 G,,4 | F,,2 G,,2 C,4 | %270
w: |||||* * x|||
 C,4 D,4 | G,,4- G,,4 | A,,4 D,4 | D,8 | E,4 A,,4 | B,,2 ^C,2 D,4 | C,2 D,2 G,,4 | F,,2 G,,2 C,4 | %278
w: |||||* * x|||
 D,2 E,2 A,,4- | A,,4 F,4 | F,2 E,D, G,4 | C,4 D,4 | G,,8 | C,4 C,2 B,,A,, | D,4 G,,4 | A,,4 D,4 | %286
w: x x x|z *|* * * z|z *|||z *||
 G,,4 C,4 | F,2 D,2 E,4 | A,,4 F,,4 | F,2 F,2 F,2 E,D, | G,4 E,2 B,,C, | D,8 | G,,16 |] %293
w: |||||||

